FINK
CUT[EIN HERZ DAS SICH MIT SORGEN QUAELT]
REG[Europa, Mitteleuropa, Deutschland]
KEY[F0053  16  D 6/8]
MEL[-5_  -5__1_-3__-3_  -3_-2_-3_-1__
    -5_  -5__-4_-4__-3_  -3_-2_0__.
    -5_  -5__1_-3__-3_  -3_-2_-3_-1__
    -5_  -5__-4_-4__-3_  -3_-2_0__.
    -5_  -4#__-2_-5_-7_2_  1_-6_-4_-5__
    -5_  -4#__-2_-5_-7_2_  1_-6_-4#_-5__-4_
    -3_-3_-3_-5_-4_0_  -2_-2_-2_-6_-5_0_
    1_1_1_2__2_  -5_.-6-7_1__ //] >>
FCT[Moral - Lied, Optimismus]
